X: 5
T: Cotillon
T: Longways for as many as will.
%R: march
B: Daniel Wright "Wright's Compleat Collection of Celebrated Country Dances" 1740 p.3
S: http://library.efdss.org/cgi-bin/dancebooks.cgi
Z: 2014 John Chambers <jc:trillian.mit.edu>
M: C
L: 1/8
K: C
% - - - - - - - - - - - - - - - - - - - - - - - - -
[|\
G2c2 B2c2 | dcde d2e2 |\
G2c2 B2cd | Td4 c4 |]|\
e2dc d4 | e2dc d4 |
e2de fede | fedc d4 |\
G2c2 B2c2 | dcde d2e2 |\
G2c2 B2cd | Td4 c4 |]
% - - - - - - - - - - - - - - - - - - - - - - - - -
%%center A Double Dance
%%begintext align
%% Set & cast down .| then up again :| 1st Man sets to
%% the 2d Wo. & turns her .| the 2d Man the same
%% with the 1st Wo. :| then cross over .| and half
%% figure :| 1st & 2d. Cu. foots it with their Partners
%% & turns the We. in the Mens Place .| then foot
%% it to their Partners & turn in their right Places
%%endtext
% - - - - - - - - - - - - - - - - - - - - - - - - -
%%sep 2 4 300
